!! Orlando di Lasso, "Oculus non vidit" 2-part polyphony, alla breve;
!! No. 1 from Laudate Pueri, 16th century, Tovey edition, pp. 2-3
**kern	**kern
*M4/2	*M4/2
=1	=1
0r	1.ee
.	2dd
=2	=2
1r	2cc
.	2a
[1a	2.cc
.	4dd
=3	=3
2a]	1ee
2g	.
2f	1a
2d	.
=4	=4
2.f	2r
.	4a
4g	4b
1a	4cc
.	4dd
.	4ee
.	4cc
=5	=5
1d	2ff
.	4dd
.	4ee
2r	4ff
.	4dd
4A	2ff
4B	.
=6	=6
4c	1ee
4d	.
4e	.
4c	.
2f	1a
4d	.
4e	.
=7	=7
4f	2.a
4d	.
2f	.
.	4b
2e	4cc
.	4b
4A	4cc
4B	4dd
=8	=8
4c	0ee
4d	.
4e	.
4f	.
2g	.
[2a	.
=9	=9
4a]	1ee
8g#	.
8f#	.
2g#	.
1a	2r
.	2cc
=10	=10
2r	1ff
2d	.
1g	2dd
.	[2gg
=11	=11
2e	2gg]
1a	2ff
.	1ee
2g	.
=12	=12
2f	1a
1d	.
.	1b
[2e	.
=13	=13
2e]	2.cc
2.f	.
.	4a
.	2.dd
4d	.
[2g	.
.	4b
=14	=14
4g]	2.ee
4e	.
2.a	.
.	4cc
.	4ff
4g	4ee
4g	[2ee
8f	.
8e	.
=15	=15
1f	4ee]
.	8dd
.	8cc
.	2d
1e	[1ee
=16	=16
2r	1ee]
2cc	.
4cc	2r
4b	.
4a	2cc
4g	.
=17	=17
2f	4cc
.	4dd
2.c	4ee
.	4ff
.	2gg
4d	.
2e	[2cc
=18	=18
1f	4cc]
.	4b
.	2a
2e	1g
2c	.
=19	=19
4c	1a
4A	.
2.f	.
.	1cc
4e	.
[2a	.
=20	=20
4a]	0b
8g#	.
8f#	.
2g#	.
1a	.
=21	=21
1r	1ee
1e	2.r
.	4gg
=22	=22
2r	2.dd
2g	.
.	4ee
2.d	2ff
.	2dd
4e	.
=23	=23
2f	2.a
2d	.
.	4b
4A	4cc
4B	4dd
4c	2ee
4d	.
=24	=24
2e	2.cc
2.f	.
.	4a
.	1ff
4d	.
[2a	.
=25	=25
4a]	2.ee
4g	.
2a	.
.	4ff
2e	1gg
2cc	.
=26	=26
2.g	2r
.	2gg
4a	.
2b-	2.dd
2g	.
.	4ee
=27	=27
2.d	2ff
.	2dd
4e	.
4f	4a
4g	4b
[2a	4cc
.	4dd
=28	=28
4a]	2ee
4g	.
4f	2.a
4e	.
2d	.
.	4b
[2a	4cc
.	4dd
=29	=29
4a]	2.ee
4g	.
4a	.
4b-	4dd
2.a	4cc
.	4dd
.	4ee
8g	4ff
8f	.
=30	=30
4g	4ee
4f	4a
4f	2.dd
8e	.
8d	.
1e	.
.	8cc#
.	8b
.	2cc#
=31	=31
0d;	0dd;
==	==
*-	*-
